X: 58
T:The Chest Of Drawers
% Nottingham Music Database
S:John Goodacre 1986, via PR
M:4/4
L:1/4
K:D
"D"d2 "A7"A3/2G/2|"D"FD DE/2F/2|"G""C"GF ED|"A7"CE AB/2c/2|"D"d2 "A7"A3/2G/2|\
"Bm"FD DE/2F/2|"Em"GE "A7"DC| [1"D"D2 D2:|
 [2"D"D2 D3/2|:E/2|"D"FD "C"GE|"D"FD DE/2F/2|"Em"GF ED|
"A7"C/2E/2A A3/2G/2|"D"FD "A7"GE|"D"FD DE/2F/2|"G"GE "A7"DC|"D"D2 D3/2:|<end>
<start>
